X:2143
T:Brickland Races. BF13.061
M:4/4
Q:180
S:J.Lishman(?)MS,c1825,Lakes,Browne Coll.
R:Reel
O:England
A:Lakes
Z:vmp.Chris Partington
K:A
A2(c/B/A) eAcA|eAaA gAfA|eA (c/B/A) eAaA|BEcE dEcE|!
A2(c/B/A) eAcA|eAaA gAfA|eaec eaec|BcBcA2A2::!
E2(G/F/E) BEGE|BEcE dEcE|A2(c/B/A) eAcA|eAaA gAfA|!
efec agaf|efec agaf|ecag fedc|BcdB AGFE:|]


